X:10160060
T:Larid\'e a8 K2  Em
G:Kazimodal
R:Larid\'e
C:Traditionnel, arrangement http://kazimodal.trad.org
Q:1/4=140
P:A3
M:4/4
K:Em
P:A
|: "Em"GF EF "D"GA "G"B2 | AB "Am"cB A2 "Bm"F2 :|
|: "Bm"FB "Em"BA AG "C"E2 |"D" FG FE DE "Bm"F2 |"Bm"FB "Em"BA AG "C"E2 | FG "D"FE "Bm"FD "Em"E2 :|

%%newpage
